X:89
T: Graf und Nonne (Die Nonne)
N: Q0155Z
O: Mitteleuropa, Deutschland (BRD) , Nordrhein - Westfalen, Siegkreis
N: Stark "zersungene" Fassung.
R: Ballade, Standesunterschied, vergebliche Werbung, Liebe, Klage
M: 3/4
L: 1/8
K: G
d2 | d4d2 | d4d2 | B6 | B4z
B | c2c2c2 | c2d2e2 | d6- | d4z
d | d2g2g2 | g2f2e2 | e6 | d6 | c4d2 | B4
d2 | d2e2d2 | c2A2d2 | B4

